X:1
T:Trimnell, 77.77
T:Trimnell, 77.77
T:F. T. Sutton, before 1890
T:Public Domain Courtesy of the Cyber Hymnal™
C:F. T. Sutton, before 1890
Z:Public Domain
Z:Courtesy of the Cyber Hymnal™
%%score ( 1 2 ) ( 3 4 )
L:1/8
Q:1/4=110
M:2/4
K:F
V:1 treble 
V:2 treble 
V:3 bass 
V:4 bass 
V:1
 [FA]3 [EB] | [Fc]2 A2 | [DB]2 [EG]2 | F4 | F3 [_EF] | [Dd]2 [Fc]2 | [FA]2 [DF]2 | [EG]4 | %8
 [FA]3 [EB] | [Fc]2 [Ac]2 | [GB]2 [^FA]2 | G4 | [EG]3 [_EA] | [DB]2 [Fd]2 | [Fc]2 [CE]2 | [CF]4 |] %16
V:2
 x4 | x2 (F_E) | x4 | F4 | F3 x | x4 | x4 | x4 | x4 | x4 | x4 | G4 | x4 | x4 | x4 | x4 |] %16
V:3
 [F,C]3 [G,C] | [A,C]2 [F,C]2 | [B,,B,]2 [C,B,]2 | [F,A,]4 | [D,B,]2 [C,A,]2 | [B,,B,]2 [A,,C]2 | %6
 [D,=B,]2 [G,B,]2 | [C,C]4 | [F,C]3 [G,C] | [A,C]2 [^F,_E]2 | [G,D]2 (DC) | [G,B,]4 | %12
 [C,C]3 [F,C] | [B,,B,]2 [=B,,G,]2 | [C,A,]2 [C,B,]2 | [F,A,]4 |] %16
V:4
 x4 | x4 | x4 | x4 | x4 | x4 | x4 | x4 | x4 | x4 | x2 D,2 | x4 | x4 | x4 | x4 | x4 |] %16

